src/normal/bm_lin.svg

<!-- Generated by IcoMoon.io -->
<svg version="1.1" xmlns="http://www.w3.org/2000/svg" width="24" height="24" viewBox="0 0 24 24">
<title>bookmark</title>
<path d="M3 0v23.18l8.182-4.764 8.818 5.135v-23.551h-17zM5 19.701v-17.701h6v14.375l-0.637 0.312-5.363 3.014zM18 20.072l-5.562-3.385-0.438-0.291v-14.396h6v18.072z"></path>
</svg>

<svg xmlns="http://www.w3.org/2000/svg" width="24" height="24"><path d="M3 0v23.18l8.182-4.764L20 23.551V0H3zm2 19.701V2h6v14.375l-.637.312L5 19.701zm13 .371l-5.562-3.385-.438-.291V2h6v18.072z"/></svg>
